X:425
T:Creel of Turf, The
R:jig
Z:Transcribed by Dave Marshall
M:6/8
K:Edor
|:EBB BAG|~F3 AGF|EBB GBd|AGF E2D|
EBB BAG|~F3 ABc|~d3 ~B3|AGF E3:|
|:Bee efg|~f3 dBA|Bee efg|fdc d2A|
Bee efg|~f3 dBA|~B3 Bcd|AGF E3:|
